images/microgenetics-logo.svg

<svg fill="none" height="36" viewBox="0 0 192 36" width="192" xmlns="http://www.w3.org/2000/svg"><path d="m17.9626 9c3.8919 0 6.4366 1.875 8.3825 4.05.1497.15.2245.3.3742.45s.2246.3.3743.45c.6736.825 1.1975 1.725 1.7214 2.475.3742.525.6736 1.05 1.0478 1.5.1497.15.2245.3.3742.45s.2245.3.3742.45c1.4221 1.725 2.8441 2.85 4.9397 3 .2994-1.275.4491-2.55.4491-3.9s-.1497-2.7-.4491-3.9c-2.0956.15-3.5176 1.2-4.9397 3-.2245-.375-.5239-.75-.8233-1.2-.5987-.825-1.1975-1.8-1.9459-2.775 1.4969-1.725 3.368-3.225 5.9127-3.825-3.1435-5.475-9.0562-9.225-15.7921-9.225-6.736 0-12.64867 3.75-15.71728 9.225 2.5447.6 4.34096 2.1 5.91268 3.825.14969.15.22454.3.37422.45.14969.15.22454.3.37423.45.74844.9 1.34715 1.875 1.94595 2.775.2994.45.5239.825.8233 1.2.1497.15.2245.3.3742.525.1497.15.2245.3.3742.525 1.5717 2.175 3.1435 3.675 5.6133 3.675 2.4699 0 4.0416-1.5 5.6133-3.675.1497.3.3742.525.5239.825.6736.975 1.3472 2.1 2.1705 3.075-1.8711 2.175-4.4906 4.05-8.3825 4.05s-6.4366-1.875-8.38256-4.05c-.14969-.15-.22453-.3-.37422-.45s-.22453-.3-.37422-.45c-.6736-.825-1.1975-1.725-1.72141-2.475-.37422-.525-.6736-1.05-1.04782-1.5-.14969-.15-.22453-.3-.37422-.45s-.22453-.3-.37422-.45c-1.42204-1.725-2.84408-2.85-4.93971-3-.224532 1.2-.37422 2.55-.37422 3.9s.149688 2.7.449064 3.9c2.095636-.15 3.517676-1.2 4.939706-3 .22454.375.52391.75.82329 1.2.59875.825 1.1975 1.8 1.94594 2.775-1.49688 1.725-3.36798 3.225-5.91268 3.825 3.06861 5.55 8.98128 9.3 15.71728 9.3 6.7359 0 12.6486-3.75 15.7172-9.225-2.5447-.6-4.3409-2.1-5.9126-3.825-.1497-.15-.2246-.3-.3743-.45s-.2245-.3-.3742-.45c-.7484-.9-1.3472-1.875-1.9459-2.775-.2994-.45-.5239-.825-.8233-1.2-.1497-.15-.2246-.3-.3742-.525-.1497-.15-.2246-.3-.3743-.525-1.5717-2.175-3.1434-3.675-5.6133-3.675-2.4698 0-4.0415 1.5-5.6133 3.675-.1497-.3-.3742-.525-.5239-.825-.6736-.975-1.3472-2.1-2.17046-3.075 1.94596-2.25 4.49066-4.125 8.38256-4.125z" fill="#ff1744"/><g fill="#212121"><path d="m40.9654 9.49091v15.70909h3.2216v-10.2631h.1304l4.0653 10.1864h2.1938l4.0653-10.148h.1304v10.2247h3.2216v-15.70909h-4.096l-4.3262 10.55459h-.184l-4.3262-10.55459z"/><path d="m60.8587 25.2h3.2676v-11.7818h-3.2676zm1.6415-13.3006c.9741 0 1.7719-.744 1.7719-1.6568 0-.9051-.7978-1.64913-1.7719-1.64913-.9665 0-1.7642.74403-1.7642 1.64913 0 .9128.7977 1.6568 1.7642 1.6568z"/><path d="m72.0672 25.4301c3.1372 0 5.1085-1.8409 5.2619-4.5486h-3.0835c-.1918 1.258-1.0202 1.9637-2.1401 1.9637-1.5264 0-2.5159-1.281-2.5159-3.5361 0-2.2244.9972-3.4977 2.5159-3.4977 1.1966 0 1.9637.79 2.1401 1.9636h3.0835c-.1381-2.723-2.2014-4.5102-5.2773-4.5102-3.5744 0-5.7835 2.4775-5.7835 6.0903 0 3.5821 2.1707 6.075 5.7989 6.075z"/><path d="m79.4212 25.2h3.2676v-6.6656c.0077-1.4421 1.0509-2.4316 2.3702-2.4316.4449 0 .8054.1228 1.1122.2762l.9818-2.7c-.4295-.2608-.9818-.4296-1.6108-.4296-1.3269 0-2.4008.7671-2.8303 2.2245h-.1228v-2.0557h-3.1679z"/><path d="m93.4562 25.4301c3.5745 0 5.7989-2.4469 5.7989-6.075 0-3.6511-2.2244-6.0903-5.7989-6.0903-3.5744 0-5.7988 2.4392-5.7988 6.0903 0 3.6281 2.2244 6.075 5.7988 6.075zm.0154-2.5312c-1.6492 0-2.4929-1.5111-2.4929-3.5668s.8437-3.5744 2.4929-3.5744c1.6184 0 2.4622 1.5187 2.4622 3.5744s-.8438 3.5668-2.4622 3.5668z"/><path d="m106.688 29.7869c3.367 0 5.76-1.5341 5.76-4.4718v-11.8969h-3.244v1.979h-.123c-.437-.9588-1.396-2.1324-3.367-2.1324-2.585 0-4.771 2.0096-4.771 6.0213 0 3.9196 2.124 5.7452 4.778 5.7452 1.88 0 2.93-.9435 3.36-1.9177h.138v2.1554c0 1.5418-1.035 2.1708-2.455 2.1708-1.442 0-2.17-.629-2.439-1.2656l-3.022.4065c.391 1.7795 2.209 3.2062 5.385 3.2062zm.069-7.2102c-1.603 0-2.478-1.2733-2.478-3.306 0-2.0019.859-3.4056 2.478-3.4056 1.588 0 2.477 1.3423 2.477 3.4056 0 2.0787-.905 3.306-2.477 3.306z"/><path d="m120.418 25.4301c2.915 0 4.878-1.419 5.339-3.6051l-3.023-.1994c-.329.8974-1.173 1.3653-2.262 1.3653-1.634 0-2.67-1.0815-2.67-2.8381v-.0076h8.024v-.8975c0-4.0039-2.424-5.9829-5.539-5.9829-3.467 0-5.714 2.4622-5.714 6.098 0 3.7355 2.217 6.0673 5.845 6.0673zm-2.616-7.3099c.069-1.3424 1.089-2.4162 2.539-2.4162 1.419 0 2.401 1.0125 2.409 2.4162z"/><path d="m131.226 18.3886c.007-1.5187.912-2.4085 2.232-2.4085 1.311 0 2.101.8591 2.094 2.3012v6.9187h3.267v-7.5017c0-2.746-1.61-4.4335-4.065-4.4335-1.749 0-3.015.8591-3.544 2.2321h-.138v-2.0787h-3.114v11.7818h3.268z"/><path d="m146.764 25.4301c2.915 0 4.878-1.419 5.339-3.6051l-3.023-.1994c-.329.8974-1.173 1.3653-2.262 1.3653-1.634 0-2.67-1.0815-2.67-2.8381v-.0076h8.024v-.8975c0-4.0039-2.424-5.9829-5.538-5.9829-3.467 0-5.715 2.4622-5.715 6.098 0 3.7355 2.217 6.0673 5.845 6.0673zm-2.616-7.3099c.069-1.3424 1.09-2.4162 2.539-2.4162 1.419 0 2.401 1.0125 2.409 2.4162z"/><path d="m160.571 13.4182h-2.217v-2.8227h-3.268v2.8227h-1.61v2.4545h1.61v6.1364c-.015 2.3088 1.558 3.4517 3.928 3.352.843-.0307 1.442-.1994 1.772-.3068l-.514-2.4316c-.161.0307-.507.1074-.813.1074-.652 0-1.105-.2454-1.105-1.1506v-5.7068h2.217z"/><path d="m162.699 25.2h3.268v-11.7818h-3.268zm1.642-13.3006c.974 0 1.772-.744 1.772-1.6568 0-.9051-.798-1.64913-1.772-1.64913-.967 0-1.764.74403-1.764 1.64913 0 .9128.797 1.6568 1.764 1.6568z"/><path d="m173.908 25.4301c3.137 0 5.108-1.8409 5.262-4.5486h-3.084c-.192 1.258-1.02 1.9637-2.14 1.9637-1.526 0-2.516-1.281-2.516-3.5361 0-2.2244.997-3.4977 2.516-3.4977 1.197 0 1.964.79 2.14 1.9636h3.084c-.138-2.723-2.202-4.5102-5.278-4.5102-3.574 0-5.783 2.4775-5.783 6.0903 0 3.5821 2.171 6.075 5.799 6.075z"/><path d="m191.065 16.7778c-.292-2.1707-2.041-3.513-5.017-3.513-3.014 0-5.001 1.396-4.993 3.6665-.008 1.7642 1.104 2.9071 3.405 3.3673l2.041.4065c1.028.2071 1.496.583 1.511 1.1736-.015.698-.775 1.1966-1.918 1.1966-1.166 0-1.94-.4986-2.14-1.4574l-3.214.1688c.307 2.2551 2.225 3.6434 5.347 3.6434 3.052 0 5.239-1.5571 5.246-3.8812-.007-1.7029-1.12-2.723-3.406-3.1909l-2.132-.4296c-1.097-.2378-1.503-.6136-1.496-1.1812-.007-.7057.79-1.1659 1.803-1.1659 1.135 0 1.81.6213 1.971 1.3806z"/></g></svg>

<svg width="192" height="36" viewBox="0 0 192 36" fill="none" xmlns="http://www.w3.org/2000/svg">
<path d="M17.9626 9C21.8545 9 24.3992 10.875 26.3451 13.05C26.4948 13.2 26.5696 13.35 26.7193 13.5C26.869 13.65 26.9439 13.8 27.0936 13.95C27.7672 14.775 28.2911 15.675 28.815 16.425C29.1892 16.95 29.4886 17.475 29.8628 17.925C30.0125 18.075 30.0873 18.225 30.237 18.375C30.3867 18.525 30.4615 18.675 30.6112 18.825C32.0333 20.55 33.4553 21.675 35.5509 21.825C35.8503 20.55 36 19.275 36 17.925C36 16.575 35.8503 15.225 35.5509 14.025C33.4553 14.175 32.0333 15.225 30.6112 17.025C30.3867 16.65 30.0873 16.275 29.7879 15.825C29.1892 15 28.5904 14.025 27.842 13.05C29.3389 11.325 31.21 9.825 33.7547 9.225C30.6112 3.75 24.6985 0 17.9626 0C11.2266 0 5.31393 3.75 2.24532 9.225C4.79002 9.825 6.58628 11.325 8.158 13.05C8.30769 13.2 8.38254 13.35 8.53222 13.5C8.68191 13.65 8.75676 13.8 8.90645 13.95C9.65489 14.85 10.2536 15.825 10.8524 16.725C11.1518 17.175 11.3763 17.55 11.6757 17.925C11.8254 18.075 11.9002 18.225 12.0499 18.45C12.1996 18.6 12.2744 18.75 12.4241 18.975C13.9958 21.15 15.5676 22.65 18.0374 22.65V22.65C20.5073 22.65 22.079 21.15 23.6507 18.975C23.8004 19.275 24.0249 19.5 24.1746 19.8C24.8482 20.775 25.5218 21.9 26.3451 22.875C24.474 25.05 21.8545 26.925 17.9626 26.925C14.0707 26.925 11.526 25.05 9.58004 22.875C9.43035 22.725 9.35551 22.575 9.20582 22.425C9.05613 22.275 8.98129 22.125 8.8316 21.975C8.158 21.15 7.6341 20.25 7.11019 19.5C6.73597 18.975 6.43659 18.45 6.06237 18C5.91268 17.85 5.83784 17.7 5.68815 17.55C5.53846 17.4 5.46362 17.25 5.31393 17.1C3.89189 15.375 2.46985 14.25 0.37422 14.1C0.149688 15.3 0 16.65 0 18C0 19.35 0.149688 20.7 0.449064 21.9C2.5447 21.75 3.96674 20.7 5.38877 18.9C5.61331 19.275 5.91268 19.65 6.21206 20.1C6.81081 20.925 7.40956 21.9 8.158 22.875C6.66112 24.6 4.79002 26.1 2.24532 26.7C5.31393 32.25 11.2266 36 17.9626 36C24.6985 36 30.6112 32.25 33.6798 26.775C31.1351 26.175 29.3389 24.675 27.7672 22.95C27.6175 22.8 27.5426 22.65 27.3929 22.5C27.2432 22.35 27.1684 22.2 27.0187 22.05C26.2703 21.15 25.6715 20.175 25.0728 19.275C24.7734 18.825 24.5489 18.45 24.2495 18.075C24.0998 17.925 24.0249 17.775 23.8753 17.55C23.7256 17.4 23.6507 17.25 23.501 17.025C21.9293 14.85 20.3576 13.35 17.8877 13.35V13.35C15.4179 13.35 13.8462 14.85 12.2744 17.025C12.1247 16.725 11.9002 16.5 11.7505 16.2C11.0769 15.225 10.4033 14.1 9.58004 13.125C11.526 10.875 14.0707 9 17.9626 9Z" fill="#FF1744"/>
<path d="M40.9654 9.49091V25.2H44.187V14.9369H44.3174L48.3827 25.1233H50.5765L54.6418 14.9753H54.7722V25.2H57.9938V9.49091H53.8978L49.5716 20.0455H49.3876L45.0614 9.49091H40.9654Z" fill="#212121"/>
<path d="M60.8587 25.2H64.1263V13.4182H60.8587V25.2ZM62.5002 11.8994C63.4743 11.8994 64.2721 11.1554 64.2721 10.2426C64.2721 9.3375 63.4743 8.59347 62.5002 8.59347C61.5337 8.59347 60.736 9.3375 60.736 10.2426C60.736 11.1554 61.5337 11.8994 62.5002 11.8994Z" fill="#212121"/>
<path d="M72.0672 25.4301C75.2044 25.4301 77.1757 23.5892 77.3291 20.8815H74.2456C74.0538 22.1395 73.2254 22.8452 72.1055 22.8452C70.5791 22.8452 69.5896 21.5642 69.5896 19.3091C69.5896 17.0847 70.5868 15.8114 72.1055 15.8114C73.3021 15.8114 74.0692 16.6014 74.2456 17.775H77.3291C77.191 15.052 75.1277 13.2648 72.0518 13.2648C68.4774 13.2648 66.2683 15.7423 66.2683 19.3551C66.2683 22.9372 68.439 25.4301 72.0672 25.4301Z" fill="#212121"/>
<path d="M79.4212 25.2H82.6888V18.5344C82.6965 17.0923 83.7397 16.1028 85.059 16.1028C85.5039 16.1028 85.8644 16.2256 86.1712 16.379L87.153 13.679C86.7235 13.4182 86.1712 13.2494 85.5422 13.2494C84.2153 13.2494 83.1414 14.0165 82.7119 15.4739H82.5891V13.4182H79.4212V25.2Z" fill="#212121"/>
<path d="M93.4562 25.4301C97.0307 25.4301 99.2551 22.9832 99.2551 19.3551C99.2551 15.704 97.0307 13.2648 93.4562 13.2648C89.8818 13.2648 87.6574 15.704 87.6574 19.3551C87.6574 22.9832 89.8818 25.4301 93.4562 25.4301ZM93.4716 22.8989C91.8224 22.8989 90.9787 21.3878 90.9787 19.3321C90.9787 17.2764 91.8224 15.7577 93.4716 15.7577C95.09 15.7577 95.9338 17.2764 95.9338 19.3321C95.9338 21.3878 95.09 22.8989 93.4716 22.8989Z" fill="#212121"/>
<path d="M106.688 29.7869C110.055 29.7869 112.448 28.2528 112.448 25.3151V13.4182H109.204V15.3972H109.081C108.644 14.4384 107.685 13.2648 105.714 13.2648C103.129 13.2648 100.943 15.2744 100.943 19.2861C100.943 23.2057 103.067 25.0313 105.721 25.0313C107.601 25.0313 108.651 24.0878 109.081 23.1136H109.219V25.269C109.219 26.8108 108.184 27.4398 106.764 27.4398C105.322 27.4398 104.594 26.8108 104.325 26.1742L101.303 26.5807C101.694 28.3602 103.512 29.7869 106.688 29.7869ZM106.757 22.5767C105.154 22.5767 104.279 21.3034 104.279 19.2707C104.279 17.2688 105.138 15.8651 106.757 15.8651C108.345 15.8651 109.234 17.2074 109.234 19.2707C109.234 21.3494 108.329 22.5767 106.757 22.5767Z" fill="#212121"/>
<path d="M120.418 25.4301C123.333 25.4301 125.296 24.0111 125.757 21.825L122.734 21.6256C122.405 22.523 121.561 22.9909 120.472 22.9909C118.838 22.9909 117.802 21.9094 117.802 20.1528V20.1452H125.826V19.2477C125.826 15.2438 123.402 13.2648 120.287 13.2648C116.82 13.2648 114.573 15.727 114.573 19.3628C114.573 23.0983 116.79 25.4301 120.418 25.4301ZM117.802 18.1202C117.871 16.7778 118.891 15.704 120.341 15.704C121.76 15.704 122.742 16.7165 122.75 18.1202H117.802Z" fill="#212121"/>
<path d="M131.226 18.3886C131.233 16.8699 132.138 15.9801 133.458 15.9801C134.769 15.9801 135.559 16.8392 135.552 18.2813V25.2H138.819V17.6983C138.819 14.9523 137.209 13.2648 134.754 13.2648C133.005 13.2648 131.739 14.1239 131.21 15.4969H131.072V13.4182H127.958V25.2H131.226V18.3886Z" fill="#212121"/>
<path d="M146.764 25.4301C149.679 25.4301 151.642 24.0111 152.103 21.825L149.08 21.6256C148.751 22.523 147.907 22.9909 146.818 22.9909C145.184 22.9909 144.148 21.9094 144.148 20.1528V20.1452H152.172V19.2477C152.172 15.2438 149.748 13.2648 146.634 13.2648C143.167 13.2648 140.919 15.727 140.919 19.3628C140.919 23.0983 143.136 25.4301 146.764 25.4301ZM144.148 18.1202C144.217 16.7778 145.238 15.704 146.687 15.704C148.106 15.704 149.088 16.7165 149.096 18.1202H144.148Z" fill="#212121"/>
<path d="M160.571 13.4182H158.354V10.5955H155.086V13.4182H153.476V15.8727H155.086V22.0091C155.071 24.3179 156.644 25.4608 159.014 25.3611C159.857 25.3304 160.456 25.1617 160.786 25.0543L160.272 22.6227C160.111 22.6534 159.765 22.7301 159.459 22.7301C158.807 22.7301 158.354 22.4847 158.354 21.5795V15.8727H160.571V13.4182Z" fill="#212121"/>
<path d="M162.699 25.2H165.967V13.4182H162.699V25.2ZM164.341 11.8994C165.315 11.8994 166.113 11.1554 166.113 10.2426C166.113 9.3375 165.315 8.59347 164.341 8.59347C163.374 8.59347 162.577 9.3375 162.577 10.2426C162.577 11.1554 163.374 11.8994 164.341 11.8994Z" fill="#212121"/>
<path d="M173.908 25.4301C177.045 25.4301 179.016 23.5892 179.17 20.8815H176.086C175.894 22.1395 175.066 22.8452 173.946 22.8452C172.42 22.8452 171.43 21.5642 171.43 19.3091C171.43 17.0847 172.427 15.8114 173.946 15.8114C175.143 15.8114 175.91 16.6014 176.086 17.775H179.17C179.032 15.052 176.968 13.2648 173.892 13.2648C170.318 13.2648 168.109 15.7423 168.109 19.3551C168.109 22.9372 170.28 25.4301 173.908 25.4301Z" fill="#212121"/>
<path d="M191.065 16.7778C190.773 14.6071 189.024 13.2648 186.048 13.2648C183.034 13.2648 181.047 14.6608 181.055 16.9313C181.047 18.6955 182.159 19.8384 184.46 20.2986L186.501 20.7051C187.529 20.9122 187.997 21.2881 188.012 21.8787C187.997 22.5767 187.237 23.0753 186.094 23.0753C184.928 23.0753 184.154 22.5767 183.954 21.6179L180.74 21.7867C181.047 24.0418 182.965 25.4301 186.087 25.4301C189.139 25.4301 191.326 23.873 191.333 21.5489C191.326 19.846 190.213 18.8259 187.927 18.358L185.795 17.9284C184.698 17.6906 184.292 17.3148 184.299 16.7472C184.292 16.0415 185.089 15.5813 186.102 15.5813C187.237 15.5813 187.912 16.2026 188.073 16.9619L191.065 16.7778Z" fill="#212121"/>
</svg>
